X:737
T:Ewe Reel, The
O:ireland
R:reel
Z:id:hn-reel-813
M:C|
L:1/8
K:G
DG~G2 DGBG|=F2AF cFAF|DGG^F G2eg|^fdcA BGAF|
DG~G2 DGBG|=F2AF cFAF|DGG^F G2eg|^fdcA BG~G2:|
|:g2bg dgbg|f2af dfaf|g2bg dgbg|agfa ~g3a|
bgaf gfde|fdcA BGAF|Gggf gbag|fdcA ~G3z:|
"variation of 1st part"
|:DGGF DGGE|=F2AF cFAF|DGG^F DGGg|^fdcA BGAF|
DG~G2 DGGE|=F2AF cFAF|DGG^F ~G3g|^fdcA BG~G2:|






